X:5103
T:Physiognomist,The. HSJJ.085
O:england
M:2/4
L:1/16
Q:100
S:HSJ Jackson,Wyresdale,Lancs.1823
R:Misc.
A:Lancashire
H:1823
K:Bb
de|.f2.f2.f2.f2|f2(gf edcB)|.A2.A2.A2B2|c2.F2.F2 de|
.f2.f2.f2.f2|f2(gf edcB)|A2B2c2f2|d2B2B2|
|c2|fcac fcac|bagf =e2c2|fcac fcac|gfed c2d2|
fcac fcac|bagf =e2c2|"crotchets in MS"fcac fcac|g2e2f2|
|f2|b2d'2b2d'2|d'2c'2c'2b2|b2d'2b2d'2|c'2b2b2 f2|
b2d'2b2d'2|d'2c'2c'2b2|b2d'2b2d'2|c'2b2b2|]


